; generated by Slic3r 1.2.9 on 2015-12-19 at 23:35:34

; external perimeters extrusion width = 0.40mm
; perimeters extrusion width = 0.67mm
; infill extrusion width = 0.67mm
; solid infill extrusion width = 0.67mm
; top infill extrusion width = 0.67mm

M109 S210.0
M42 P10 S1 ; Turn on LED
G21 ; set units to millimeters
G90 ; use absolute coordinates
M82 ; use absolute distances for extrusion
M204 S500

G0 Z1 F300 ; Make sure main Z drop isn't too fast

G0 Z1 F300
G0 X0 Y0 F5000

G92 X77.7 Y52.3 ; Offset Origin from center to top right corner to accommodate Astroprint requirement
G92 E0
G21 ; set units to millimeters
G90 ; use absolute coordinates
M82 ; use absolute distances for extrusion
G92 E0
M106 S204
G1 Z0.200 F7800.000
G1 E-1.50000 F9000.00000
G92 E0
G1 Z0.500 F7800.000
G1 X55.711 Y32.874 F7800.000
G1 Z0.200 F7800.000
G1 E1.50000 F9000.00000
G1 X56.834 Y31.259 E1.60514 F1800.000
G1 X58.504 Y30.219 E1.71028
G1 X60.200 Y29.915 E1.80242
G1 X95.200 Y29.915 E3.67351
G1 X97.126 Y30.311 E3.77865
G1 X98.741 Y31.434 E3.88379 F1800.000
G1 X99.781 Y33.104 E3.98893
G1 X100.085 Y34.800 E4.08107
G1 X100.085 Y58.133 E5.32847
G1 X100.045 Y59.241 E5.38770
G1 X99.906 Y60.548 E5.45800
G1 X99.670 Y61.805 E5.52636
G1 X99.579 Y62.183 E5.54715
G1 X99.321 Y63.096 E5.59787
G1 X98.879 Y64.330 E5.66796
G1 X98.341 Y65.526 E5.73807
G1 X97.711 Y66.672 E5.80796
G1 X96.992 Y67.767 E5.87798
G1 X96.189 Y68.799 E5.94790
G1 X95.306 Y69.767 E6.01797
G1 X94.348 Y70.663 E6.08806
G1 X93.324 Y71.478 E6.15800
G1 X92.238 Y72.210 E6.22803
G1 X91.096 Y72.856 E6.29819
G1 X89.910 Y73.407 E6.36808
G1 X88.682 Y73.864 E6.43812
G1 X87.426 Y74.221 E6.50795
G1 X86.143 Y74.478 E6.57791
G1 X84.840 Y74.633 E6.64805
G1 X83.533 Y74.685 E6.71796
G1 X60.200 Y74.685 E7.96535
G1 X58.274 Y74.289 E8.07049
G1 X56.659 Y73.166 E8.17563
G1 X55.619 Y71.496 E8.28077
G1 X55.315 Y69.800 E8.37291
G1 X55.315 Y34.800 E10.24401
G1 X55.699 Y32.932 E10.34594
G1 X56.338 Y33.012 F7800.000
G1 X57.451 Y31.550 E10.44417 F1800.000
G1 X59.074 Y30.695 E10.54224
G1 X60.200 Y30.543 E10.60297
G1 X95.200 Y30.543 E12.47407
G1 X96.991 Y30.939 E12.57214
G1 X98.450 Y32.051 E12.67021 F1800.000
G1 X99.305 Y33.674 E12.76828
G1 X99.457 Y34.800 E12.82901
G1 X99.453 Y58.300 E14.08534
G1 X99.391 Y59.549 E14.15218
G1 X99.282 Y60.472 E14.20188
G1 X99.048 Y61.710 E14.26923
G1 X98.719 Y62.917 E14.33607
G1 X98.292 Y64.108 E14.40372
G1 X97.773 Y65.257 E14.47112
G1 X97.167 Y66.358 E14.53831
G1 X96.474 Y67.410 E14.60563
G1 X95.702 Y68.402 E14.67285
G1 X94.852 Y69.332 E14.74021
G1 X93.931 Y70.192 E14.80759
G1 X93.029 Y70.912 E14.86929
G1 X92.754 Y71.112 E14.88745
G1 X91.708 Y71.796 E14.95429
G1 X90.804 Y72.299 E15.00959
G1 X89.469 Y72.906 E15.08797
G1 X88.483 Y73.268 E15.14410
G1 X87.275 Y73.611 E15.21125
G1 X86.042 Y73.858 E15.27851
G1 X84.613 Y74.018 E15.35535
G1 X83.533 Y74.057 E15.41312
G1 X60.200 Y74.057 E16.66051
G1 X58.409 Y73.661 E16.75858
G1 X56.950 Y72.549 E16.85665
G1 X56.095 Y70.926 E16.95472
G1 X55.943 Y69.800 E17.01545
G1 X55.943 Y34.800 E18.88655
G1 X56.325 Y33.070 E18.98123
G1 X56.964 Y33.162 F7800.000
G1 X58.064 Y31.867 E19.07205 F1800.000
G1 X60.200 Y31.172 E19.19214
G1 X95.200 Y31.172 E21.06324
G1 X96.845 Y31.566 E21.15369
G1 X98.133 Y32.664 E21.24414 F1800.000
G1 X98.828 Y34.800 E21.36424
G1 X98.826 Y58.276 E22.61925
G1 X98.767 Y59.475 E22.68345
G1 X98.658 Y60.397 E22.73305
G1 X98.432 Y61.584 E22.79769
G1 X98.114 Y62.747 E22.86213
G1 X97.704 Y63.885 E22.92678
G1 X97.205 Y64.987 E22.99146
G1 X96.623 Y66.044 E23.05597
G1 X95.957 Y67.053 E23.12058
G1 X95.215 Y68.005 E23.18511
G1 X94.399 Y68.897 E23.24975
G1 X93.515 Y69.722 E23.31442
G1 X92.640 Y70.419 E23.37420
G1 X91.401 Y71.247 E23.45390
G1 X90.512 Y71.743 E23.50827
G1 X89.252 Y72.317 E23.58231
G1 X88.285 Y72.671 E23.63739
G1 X87.125 Y73.001 E23.70186
G1 X85.940 Y73.238 E23.76642
G1 X84.589 Y73.390 E23.83914
G1 X83.533 Y73.428 E23.89559
G1 X60.200 Y73.428 E25.14299
G1 X58.555 Y73.034 E25.23344
G1 X57.267 Y71.936 E25.32389
G1 X56.572 Y69.800 E25.44399
G1 X56.572 Y34.800 E27.31509
G1 X56.950 Y33.220 E27.40192
G1 E25.90192 F9000.00000
G92 E0
G1 Z0.500 F7800.000
G1 X60.405 Y35.005 F7800.000
G1 Z0.200 F7800.000
G1 E1.50000 F9000.00000
G1 X60.550 Y34.975 E1.50791 F1800.000
G1 X94.850 Y34.975 E3.34159
G1 X94.995 Y35.005 E3.34950
G1 X95.025 Y35.150 E3.35742
G1 X95.025 Y58.130 E4.58592
G1 X94.988 Y59.045 E4.63486
G1 X94.883 Y59.931 E4.68259
G1 X94.709 Y60.807 E4.73034
G1 X94.465 Y61.676 E4.77858
G1 X94.150 Y62.532 E4.82732
G1 X93.776 Y63.343 E4.87508
G1 X93.331 Y64.138 E4.92381
G1 X92.830 Y64.889 E4.97206
G1 X92.271 Y65.597 E5.02030
G1 X91.658 Y66.260 E5.06855
G1 X90.995 Y66.873 E5.11679
G1 X90.287 Y67.431 E5.16504
G1 X89.536 Y67.932 E5.21328
G1 X88.744 Y68.375 E5.26180
G1 X87.929 Y68.751 E5.30977
G1 X87.077 Y69.065 E5.35830
G1 X86.209 Y69.309 E5.40654
G1 X85.329 Y69.484 E5.45450
G1 X84.446 Y69.588 E5.50202
G1 X83.533 Y69.625 E5.55089
G1 X60.550 Y69.625 E6.77953
G1 X60.405 Y69.595 E6.78745
G1 X60.375 Y69.450 E6.79536
G1 X60.375 Y35.150 E8.62904
G1 X60.405 Y35.005 E8.63695
G1 Z0.400 F7800.000
G1 X60.550 Y34.975 E8.64487 F3600.000
G1 X94.850 Y34.975 E10.47854
G1 X94.995 Y35.005 E10.48645
G1 X95.025 Y35.150 E10.49437
G1 X95.025 Y58.130 E11.72287
G1 X94.988 Y59.050 E11.77211
G1 X94.883 Y59.932 E11.81957
G1 X94.710 Y60.803 E11.86706
G1 X94.466 Y61.672 E11.91533
G1 X94.149 Y62.533 E11.96434
G1 X93.777 Y63.340 E12.01187
G1 X93.330 Y64.140 E12.06086
G1 X92.828 Y64.890 E12.10912
G1 X92.269 Y65.599 E12.15738
G1 X91.656 Y66.262 E12.20563
G1 X90.993 Y66.874 E12.25389
G1 X90.284 Y67.433 E12.30215
G1 X89.533 Y67.934 E12.35041
G1 X88.744 Y68.376 E12.39876
G1 X87.925 Y68.752 E12.44693
G1 X87.076 Y69.065 E12.49530
G1 X86.207 Y69.309 E12.54357
G1 X85.324 Y69.484 E12.59170
G1 X84.454 Y69.587 E12.63852
G1 X83.533 Y69.625 E12.68779
G1 X60.550 Y69.625 E13.91648
G1 X60.405 Y69.595 E13.92439
G1 X60.375 Y69.450 E13.93231
G1 X60.375 Y35.150 E15.76598
G1 X60.405 Y35.005 E15.77390
G1 Z0.600 F7800.000
G1 X60.550 Y34.975 E15.78181 F3600.000
G1 X94.850 Y34.975 E17.61548
G1 X94.995 Y35.005 E17.62340
G1 X95.025 Y35.150 E17.63131
G1 X95.025 Y58.130 E18.85982
G1 X94.987 Y59.056 E18.90936
G1 X94.883 Y59.932 E18.95654
G1 X94.711 Y60.799 E19.00379
G1 X94.467 Y61.669 E19.05208
G1 X94.151 Y62.530 E19.10110
G1 X93.778 Y63.338 E19.14866
G1 X93.331 Y64.138 E19.19768
G1 X92.829 Y64.889 E19.24597
G1 X92.268 Y65.601 E19.29444
G1 X91.654 Y66.264 E19.34272
G1 X90.991 Y66.876 E19.39099
G1 X90.283 Y67.433 E19.43913
G1 X89.530 Y67.936 E19.48753
G1 X88.742 Y68.376 E19.53580
G1 X87.923 Y68.753 E19.58400
G1 X87.074 Y69.066 E19.63235
G1 X86.205 Y69.310 E19.68062
G1 X85.320 Y69.485 E19.72887
G1 X84.462 Y69.586 E19.77502
G1 X83.533 Y69.625 E19.82473
G1 X60.550 Y69.625 E21.05341
G1 X60.405 Y69.595 E21.06133
G1 X60.375 Y69.450 E21.06924
G1 X60.375 Y35.150 E22.90292
G1 X60.405 Y35.005 E22.91083
G1 Z0.800 F7800.000
G1 X60.550 Y34.975 E22.91875 F3600.000
G1 X94.850 Y34.975 E24.75242
G1 X94.995 Y35.005 E24.76033
G1 X95.025 Y35.150 E24.76825
G1 X95.025 Y58.130 E25.99675
G1 X94.987 Y59.062 E26.04660
G1 X94.883 Y59.933 E26.09351
G1 X94.712 Y60.795 E26.14050
G1 X94.468 Y61.665 E26.18881
G1 X94.152 Y62.526 E26.23785
G1 X93.780 Y63.335 E26.28543
G1 X93.332 Y64.136 E26.33448
G1 X92.830 Y64.887 E26.38279
G1 X92.271 Y65.597 E26.43110
G1 X91.657 Y66.260 E26.47941
G1 X90.989 Y66.878 E26.52807
G1 X90.279 Y67.437 E26.57636
G1 X89.527 Y67.938 E26.62465
G1 X88.739 Y68.378 E26.67293
G1 X87.918 Y68.755 E26.72122
G1 X87.070 Y69.067 E26.76950
G1 X86.201 Y69.311 E26.81779
G1 X85.318 Y69.485 E26.86590
G1 X84.471 Y69.585 E26.91150
G1 X83.533 Y69.625 E26.96165
G1 X60.550 Y69.625 E28.19034
G1 X60.405 Y69.595 E28.19825
G1 X60.375 Y69.450 E28.20617
G1 X60.375 Y35.150 E30.03984
G1 X60.405 Y35.005 E30.04776
G1 Z1.000 F7800.000
G1 X60.550 Y34.975 E30.05567 F3600.000
G1 X94.850 Y34.975 E31.88935
G1 X94.995 Y35.005 E31.89726
G1 X95.025 Y35.150 E31.90517
G1 X95.025 Y58.130 E33.13368
G1 X94.986 Y59.067 E33.18383
G1 X94.883 Y59.933 E33.23046
G1 X94.713 Y60.791 E33.27720
G1 X94.469 Y61.662 E33.32553
G1 X94.153 Y62.523 E33.37460
G1 X93.781 Y63.332 E33.42220
G1 X93.334 Y64.134 E33.47126
G1 X92.832 Y64.885 E33.51959
G1 X92.272 Y65.596 E33.56793
G1 X91.658 Y66.259 E33.61626
G1 X90.986 Y66.880 E33.66515
G1 X90.276 Y67.438 E33.71345
G1 X89.524 Y67.939 E33.76175
G1 X88.735 Y68.380 E33.81005
G1 X87.914 Y68.757 E33.85835
G1 X87.066 Y69.068 E33.90665
G1 X86.196 Y69.312 E33.95495
G1 X85.316 Y69.485 E34.00291
G1 X84.479 Y69.584 E34.04798
G1 X83.533 Y69.625 E34.09857
G1 X60.550 Y69.625 E35.32726
G1 X60.405 Y69.595 E35.33517
G1 X60.375 Y69.450 E35.34309
G1 X60.375 Y35.150 E37.17676
G1 X60.405 Y35.005 E37.18467
G1 Z1.200 F7800.000
G1 X60.550 Y34.975 E37.19259 F3600.000
G1 X94.850 Y34.975 E39.02626
G1 X94.995 Y35.005 E39.03418
G1 X95.025 Y35.150 E39.04209
G1 X95.025 Y58.130 E40.27059
G1 X94.985 Y59.073 E40.32104
G1 X94.882 Y59.934 E40.36740
G1 X94.713 Y60.787 E40.41389
G1 X94.470 Y61.658 E40.46225
G1 X94.154 Y62.520 E40.51133
G1 X93.782 Y63.329 E40.55895
G1 X93.335 Y64.131 E40.60804
G1 X92.833 Y64.884 E40.65639
G1 X92.273 Y65.594 E40.70475
G1 X91.659 Y66.258 E40.75310
G1 X90.984 Y66.882 E40.80222
G1 X90.274 Y67.440 E40.85053
G1 X89.521 Y67.941 E40.89884
G1 X88.732 Y68.381 E40.94716
G1 X87.911 Y68.758 E40.99547
G1 X87.062 Y69.069 E41.04378
G1 X86.192 Y69.313 E41.09210
G1 X85.314 Y69.486 E41.13992
G1 X84.487 Y69.583 E41.18444
G1 X83.533 Y69.625 E41.23548
G1 X60.550 Y69.625 E42.46416
G1 X60.405 Y69.595 E42.47208
G1 X60.375 Y69.450 E42.47999
G1 X60.375 Y35.150 E44.31367
G1 X60.405 Y35.005 E44.32158
G1 Z1.400 F7800.000
G1 X60.550 Y34.975 E44.32950 F3600.000
G1 X94.850 Y34.975 E46.16317
G1 X94.995 Y35.005 E46.17108
G1 X95.025 Y35.150 E46.17900
G1 X95.025 Y58.130 E47.40750
G1 X94.985 Y59.078 E47.45825
G1 X94.882 Y59.934 E47.50434
G1 X94.714 Y60.783 E47.55058
G1 X94.471 Y61.654 E47.59895
G1 X94.155 Y62.517 E47.64806
G1 X93.783 Y63.327 E47.69570
G1 X93.336 Y64.129 E47.74481
G1 X92.834 Y64.882 E47.79318
G1 X92.274 Y65.593 E47.84156
G1 X91.660 Y66.257 E47.88993
G1 X90.982 Y66.883 E47.93927
G1 X90.271 Y67.442 E47.98760
G1 X89.518 Y67.943 E48.03593
G1 X88.729 Y68.383 E48.08426
G1 X87.907 Y68.760 E48.13258
G1 X87.058 Y69.070 E48.18091
G1 X86.187 Y69.314 E48.22924
G1 X85.312 Y69.486 E48.27692
G1 X84.495 Y69.582 E48.32089
G1 X83.533 Y69.625 E48.37237
G1 X60.550 Y69.625 E49.60106
G1 X60.405 Y69.595 E49.60898
G1 X60.375 Y69.450 E49.61689
G1 X60.375 Y35.150 E51.45056
G1 X60.405 Y35.005 E51.45848
G1 Z1.600 F7800.000
G1 X60.550 Y34.975 E51.46639 F3600.000
G1 X94.850 Y34.975 E53.30007
G1 X94.995 Y35.005 E53.30798
G1 X95.025 Y35.150 E53.31590
G1 X95.025 Y58.130 E54.54440
G1 X94.984 Y59.084 E54.59545
G1 X94.882 Y59.935 E54.64126
G1 X94.715 Y60.779 E54.68725
G1 X94.472 Y61.651 E54.73564
G1 X94.156 Y62.514 E54.78477
G1 X93.785 Y63.324 E54.83244
G1 X93.337 Y64.127 E54.88156
G1 X92.835 Y64.880 E54.92996
G1 X92.275 Y65.591 E54.97836
G1 X91.661 Y66.256 E55.02675
G1 X90.980 Y66.885 E55.07632
G1 X90.268 Y67.444 E55.12466
G1 X89.515 Y67.944 E55.17300
G1 X88.725 Y68.384 E55.22135
G1 X87.903 Y68.761 E55.26969
G1 X87.054 Y69.072 E55.31803
G1 X86.183 Y69.315 E55.36637
G1 X85.310 Y69.486 E55.41391
G1 X84.504 Y69.581 E55.45734
G1 X83.533 Y69.625 E55.50926
G1 X60.550 Y69.625 E56.73795
G1 X60.405 Y69.595 E56.74586
G1 X60.375 Y69.450 E56.75378
G1 X60.375 Y35.150 E58.58745
G1 X60.405 Y35.005 E58.59537
G1 Z1.800 F7800.000
G1 X60.550 Y34.975 E58.60328 F3600.000
G1 X94.850 Y34.975 E60.43695
G1 X94.995 Y35.005 E60.44487
G1 X95.025 Y35.150 E60.45278
G1 X95.025 Y58.130 E61.68129
G1 X94.984 Y59.090 E61.73264
G1 X94.882 Y59.935 E61.77818
G1 X94.716 Y60.775 E61.82392
G1 X94.473 Y61.647 E61.87233
G1 X94.158 Y62.511 E61.92148
G1 X93.786 Y63.321 E61.96916
G1 X93.339 Y64.125 E62.01831
G1 X92.836 Y64.878 E62.06673
G1 X92.276 Y65.590 E62.11515
G1 X91.662 Y66.255 E62.16356
G1 X90.977 Y66.887 E62.21336
G1 X90.266 Y67.445 E62.26172
G1 X89.512 Y67.946 E62.31007
G1 X88.722 Y68.386 E62.35843
G1 X87.900 Y68.762 E62.40678
G1 X87.050 Y69.073 E62.45514
G1 X86.179 Y69.316 E62.50349
G1 X85.309 Y69.486 E62.55089
G1 X84.512 Y69.580 E62.59378
G1 X83.533 Y69.625 E62.64614
G1 X60.550 Y69.625 E63.87483
G1 X60.405 Y69.595 E63.88274
G1 X60.375 Y69.450 E63.89066
G1 X60.375 Y35.150 E65.72433
G1 X60.405 Y35.005 E65.73225
G1 Z2.000 F7800.000
G1 X60.550 Y34.975 E65.74016 F3600.000
G1 X94.850 Y34.975 E67.57383
G1 X94.995 Y35.005 E67.58175
G1 X95.025 Y35.150 E67.58966
G1 X95.025 Y58.130 E68.81816
G1 X94.983 Y59.095 E68.86983
G1 X94.882 Y59.936 E68.91508
G1 X94.717 Y60.771 E68.96057
G1 X94.474 Y61.644 E69.00901
G1 X94.159 Y62.508 E69.05818
G1 X93.787 Y63.319 E69.10588
G1 X93.340 Y64.122 E69.15505
G1 X92.837 Y64.877 E69.20349
G1 X92.277 Y65.589 E69.25193
G1 X91.663 Y66.254 E69.30037
G1 X90.975 Y66.889 E69.35039
G1 X90.263 Y67.447 E69.39876
G1 X89.509 Y67.948 E69.44713
G1 X88.719 Y68.388 E69.49550
G1 X87.896 Y68.764 E69.54387
G1 X87.046 Y69.074 E69.59223
G1 X86.174 Y69.316 E69.64060
G1 X85.307 Y69.486 E69.68786
G1 X84.520 Y69.579 E69.73020
G1 X83.533 Y69.624 E69.78301
G1 X60.550 Y69.625 E71.01170
G1 X60.405 Y69.595 E71.01961
G1 X60.375 Y69.450 E71.02753
G1 X60.375 Y35.150 E72.86120
G1 X60.405 Y35.005 E72.86912
G1 Z2.200 F7800.000
G1 X60.550 Y34.975 E72.87703 F3600.000
G1 X94.850 Y34.975 E74.71070
G1 X94.995 Y35.005 E74.71862
G1 X95.025 Y35.150 E74.72653
G1 X95.025 Y58.130 E75.95503
G1 X94.982 Y59.101 E76.00700
G1 X94.881 Y59.936 E76.05198
G1 X94.718 Y60.767 E76.09722
G1 X94.475 Y61.640 E76.14568
G1 X94.160 Y62.504 E76.19487
G1 X93.788 Y63.316 E76.24259
G1 X93.341 Y64.120 E76.29178
G1 X92.839 Y64.875 E76.34024
G1 X92.278 Y65.587 E76.38870
G1 X91.664 Y66.253 E76.43716
G1 X90.973 Y66.891 E76.48741
G1 X90.260 Y67.449 E76.53579
G1 X89.506 Y67.950 E76.58418
G1 X88.715 Y68.389 E76.63256
G1 X87.892 Y68.765 E76.68094
G1 X87.042 Y69.075 E76.72932
G1 X86.170 Y69.317 E76.77771
G1 X85.305 Y69.487 E76.82482
G1 X84.528 Y69.578 E76.86662
G1 X83.533 Y69.624 E76.91987
G1 X60.550 Y69.625 E78.14856
G1 X60.405 Y69.595 E78.15647
G1 X60.375 Y69.450 E78.16439
G1 X60.375 Y35.150 E79.99806
G1 X60.405 Y35.005 E80.00598
G1 Z2.400 F7800.000
G1 X60.550 Y34.975 E80.01389 F3600.000
G1 X94.850 Y34.975 E81.84756
G1 X94.995 Y35.005 E81.85548
G1 X95.025 Y35.150 E81.86339
G1 X95.025 Y58.130 E83.09190
G1 X94.982 Y59.107 E83.14416
G1 X94.881 Y59.937 E83.18887
G1 X94.719 Y60.762 E83.23386
G1 X94.476 Y61.636 E83.28234
G1 X94.161 Y62.501 E83.33155
G1 X93.790 Y63.313 E83.37929
G1 X93.342 Y64.118 E83.42851
G1 X92.840 Y64.873 E83.47699
G1 X92.279 Y65.586 E83.52547
G1 X91.664 Y66.252 E83.57395
G1 X90.970 Y66.893 E83.62442
G1 X90.258 Y67.451 E83.67282
G1 X89.503 Y67.951 E83.72122
G1 X88.712 Y68.391 E83.76961
G1 X87.888 Y68.767 E83.81801
G1 X87.038 Y69.076 E83.86640
G1 X86.165 Y69.318 E83.91480
G1 X85.303 Y69.487 E83.96177
G1 X84.537 Y69.577 E84.00303
G1 X83.533 Y69.624 E84.05673
G1 X60.550 Y69.625 E85.28541
G1 X60.405 Y69.595 E85.29333
G1 X60.375 Y69.450 E85.30124
G1 X60.375 Y35.150 E87.13492
G1 X60.405 Y35.005 E87.14283
G1 Z2.600 F7800.000
G1 X60.550 Y34.975 E87.15074 F3600.000
G1 X94.850 Y34.975 E88.98442
G1 X94.995 Y35.005 E88.99233
G1 X95.025 Y35.150 E89.00025
G1 X95.025 Y58.130 E90.22875
G1 X94.981 Y59.112 E90.28132
G1 X94.881 Y59.937 E90.32575
G1 X94.719 Y60.758 E90.37049
G1 X94.477 Y61.633 E90.41899
G1 X94.162 Y62.498 E90.46822
G1 X93.791 Y63.311 E90.51599
G1 X93.344 Y64.116 E90.56522
G1 X92.841 Y64.871 E90.61372
G1 X92.280 Y65.584 E90.66222
G1 X91.665 Y66.251 E90.71073
G1 X90.968 Y66.894 E90.76143
G1 X90.255 Y67.453 E90.80984
G1 X89.500 Y67.953 E90.85825
G1 X88.709 Y68.392 E90.90666
G1 X87.885 Y68.768 E90.95507
G1 X87.034 Y69.078 E91.00348
G1 X86.161 Y69.319 E91.05189
G1 X85.301 Y69.487 E91.09872
G1 X84.545 Y69.576 E91.13943
G1 X83.533 Y69.624 E91.19357
G1 X60.550 Y69.625 E92.42226
G1 X60.405 Y69.595 E92.43017
G1 X60.375 Y69.450 E92.43809
G1 X60.375 Y35.150 E94.27176
G1 X60.405 Y35.005 E94.27967
G1 Z2.800 F7800.000
G1 X60.550 Y34.975 E94.28759 F3600.000
G1 X94.850 Y34.975 E96.12126
G1 X94.995 Y35.005 E96.12918
G1 X95.025 Y35.150 E96.13709
G1 X95.025 Y58.130 E97.36559
